X:14
T:Black Joke With Variations. Le4.014
B:L.Leadley MS#4 c1850
Z:Village Music Project, 2016 Steve Mansfield
M:6/8
L:1/8
Q:3/8=90
N:* Mss shows A/B/c/d/e/ | FAd |
N:** Mss shows e/d/c/B/A/ z2z
N:*** Mss shows ecccc z2z | fdddd z2z | e/c/c/c/c/ z2z | f/d/d/d/d/ z2z
K:A
EAA AGA | BcB BAB | cdc ecA | Adc BAG |
ABc FGA | EFG A3 :: cde efe | fga fed |
cde efe | fga edc | dfd cec | BcB B2A/G/ |
Ace ecA | Fdc BAG | ABc FGA | EFG A3 :|
|: "Var" A,CD Ace | B,DF Bdf | A,CE Ace | aec edB |
ABc FGA | EFG A3 :: cde e/d/c/B/A | afd ecA |
cde e/d/c/B/A | agf edc | dfb cea | BcB B2 (3e/f/g/ |
agf ecA | Fdc BAG | Ace FAd | EFG A3 :|
|: "Var" ABA AA,A | BcB BB,B | cdc cCc | BcB BAG |
"*"A/B/c/d/e FAc | EFG A3 :: e/d/c/d/e/f/ ecA | afd ecA |
e/d/c/d/e/f/ ecA | bgf edc | dfb cea | BcB B2 (3e/f/g/ |
agf f/e/d/c/B/A/ | Fdc BAG | A/B/c/d/e FAd | EFG A3 :|
|: A,2A A/G/F/E/D/C/ | B,2B B/A/G/F/E/D/ | C2c c/B/A/G/F/E/ | B,2B BAG |
A/B/c/d/e F/G/A/B/c/d/ | EFG A3 :: c/B/A/B/c/d/ e/d/c/d/e/c/ | a/g/f/g/a/f/ e/d/c/d/e/c/ |
c/B/A/B/c/d/ e/d/c/d/e/c/ | a/g/f/g/a/f/ e/d/c/d/e/c/ | d/f/b/f/e/d/ c/e/a/e/d/c/ | BcB B2 (3e/f/g/ |
agf f/e/d/c/B/A/ | Fdc BAG | Ace FAd | EFG A3 :|
|: "Var" eab z2z | ebc' z2z | ec'd' z2z | ed'e' z2z |
eag agf | efg a3 :: e/d/c/B/A z2z | fga ecA |
"**" e/d/c/B/A z2z | fga edc | dfb cea | BcB B2 (3e/f/g/ |
agf f/e/d/c/B/A/ | Fdc BAG | Ace FAd | EFG A3 :|
|: "Var" eaa aga | ac'a bab | c'd'c'e'c'a | fd'c' bag |
abc' fga | efg a3 :: ece z2z | fdf z2z |
ece z2z | fdf z2z | aca z2z | gBg z2z |
agf f/e/d/c/B/A/ | Fdc BAG | A/B/c/d/e FAd | EFG A3 :|
|: "Var" aAa z2z | bAb z2z | c'Ac' z2z | bAb z2z |
ac'a agf | efg a3 :: "***"ec/c/c/c/ z2z | fd/d/d/d/ z2z |
ec/c/c/c/ z2z | fd/d/d/d/ z2z | agf edc | BcB B2 (3e/f/g/ |
afd ecA | Fdc BAG | A/B/c/d/e FAd | EFG A3 :|

